public/img/index_features/community.svg

<svg width="24" height="24" viewBox="0 0 24 24" fill="none" xmlns="http://www.w3.org/2000/svg">
<g id="Frame">
<path id="Vector" d="M11 17L13 19C13.197 19.197 13.4308 19.3532 13.6882 19.4598C13.9456 19.5665 14.2214 19.6213 14.5 19.6213C14.7786 19.6213 15.0544 19.5665 15.3118 19.4598C15.5692 19.3532 15.803 19.197 16 19C16.197 18.803 16.3532 18.5692 16.4598 18.3118C16.5665 18.0544 16.6213 17.7786 16.6213 17.5C16.6213 17.2214 16.5665 16.9456 16.4598 16.6882C16.3532 16.4308 16.197 16.197 16 16" stroke="#C0C1C3" stroke-width="2" stroke-linecap="round" stroke-linejoin="round"/>
<path id="Vector_2" d="M14.0002 14L16.5002 16.5C16.8981 16.8978 17.4376 17.1213 18.0002 17.1213C18.5628 17.1213 19.1024 16.8978 19.5002 16.5C19.8981 16.1022 20.1215 15.5626 20.1215 15C20.1215 14.4374 19.8981 13.8978 19.5002 13.5L15.6202 9.62002C15.0577 9.05821 14.2952 8.74265 13.5002 8.74265C12.7052 8.74265 11.9427 9.05821 11.3802 9.62002L10.5002 10.5C10.1024 10.8978 9.56284 11.1213 9.00023 11.1213C8.43762 11.1213 7.89805 10.8978 7.50023 10.5C7.1024 10.1022 6.87891 9.56262 6.87891 9.00002C6.87891 8.43741 7.1024 7.89784 7.50023 7.50002L10.3102 4.69002C11.2225 3.78016 12.4121 3.20057 13.6909 3.04299C14.9696 2.88541 16.2644 3.15885 17.3702 3.82002L17.8402 4.10002C18.266 4.357 18.7723 4.44613 19.2602 4.35002L21.0002 4.00002" stroke="#C0C1C3" stroke-width="2" stroke-linecap="round" stroke-linejoin="round"/>
<path id="Vector_3" d="M21 3L22 14H20" stroke="#C0C1C3" stroke-width="2" stroke-linecap="round" stroke-linejoin="round"/>
<path id="Vector_4" d="M3 3L2 14L8.5 20.5C8.89782 20.8978 9.43739 21.1213 10 21.1213C10.5626 21.1213 11.1022 20.8978 11.5 20.5C11.8978 20.1022 12.1213 19.5626 12.1213 19C12.1213 18.4374 11.8978 17.8978 11.5 17.5" stroke="#C0C1C3" stroke-width="2" stroke-linecap="round" stroke-linejoin="round"/>
<path id="Vector_5" d="M3 4H11" stroke="#C0C1C3" stroke-width="2" stroke-linecap="round" stroke-linejoin="round"/>
</g>
</svg>

<svg xmlns="http://www.w3.org/2000/svg" fill="none" viewBox="0 0 24 24" preserveAspectRatio="xMidYMid meet"><g stroke="#c0c1c3" stroke-linecap="round" stroke-linejoin="round" stroke-width="2"><path d="m11 17 2 2a2.12 2.12 0 1 0 3-3"/><path d="m14 14 2.5 2.5a2.122 2.122 0 0 0 3-3l-3.88-3.88a3 3 0 0 0-4.24 0l-.88.88a2.121 2.121 0 0 1-3-3l2.81-2.81a5.79 5.79 0 0 1 7.06-.87l.47.28a2 2 0 0 0 1.42.25L21 4"/><path d="m21 3 1 11h-2M3 3 2 14l6.5 6.5a2.121 2.121 0 0 0 3-3M3 4h8"/></g></svg>
